frontend/web/build/img/static/telegram-icon.svg

<svg width="20" height="18" viewBox="0 0 20 18" fill="none" xmlns="http://www.w3.org/2000/svg">
<path d="M7.52304 16.0629C6.91585 16.0629 6.97105 15.8421 6.80545 15.2901L5.03906 9.49414L18.5629 1.54541" fill="#C8DAEA"/>
<path d="M7.52344 16.0635C7.90983 16.0635 8.13063 15.8427 8.40663 15.6219L10.8906 13.2484L7.79944 11.3716" fill="#A9C9DD"/>
<path d="M7.79912 11.3712L15.2511 16.8359C16.0239 17.3327 16.6862 17.0567 16.907 16.0631L19.943 1.82167C20.219 0.607276 19.4462 0.055281 18.6182 0.441678L0.899176 7.28642C-0.260015 7.72802 -0.260015 8.44561 0.678377 8.72161L5.25994 10.1568L15.7479 3.47765C16.2446 3.20165 16.6862 3.31205 16.355 3.69845" fill="#F6FBFE"/>
</svg>

<svg width="20" height="18" viewBox="0 0 20 18" fill="none" xmlns="http://www.w3.org/2000/svg"><path d="M7.523 16.063c-.607 0-.552-.22-.718-.773L5.04 9.494l13.524-7.949" fill="#C8DAEA"/><path d="M7.523 16.064c.387 0 .608-.221.884-.442l2.484-2.374-3.092-1.876" fill="#A9C9DD"/><path d="M7.8 11.371l7.451 5.465c.773.497 1.435.22 1.656-.773l3.036-14.241c.276-1.215-.497-1.767-1.325-1.38L.9 7.286c-1.16.442-1.16 1.16-.22 1.436l4.58 1.435 10.489-6.68c.497-.275.938-.165.607.221" fill="#F6FBFE"/></svg>
